luts/backup/BlackmagicPocket6KFilmtoExtendedVideov4.cube
# DaVinci Resolve Cube (3D LUT)
#
# Blackmagic Pocket 6K Film to Extended Video v4
# Blackmagic Pocket 6K Film to Extended Video using v4 Color Science.
# Matches the 'Extended Video' output from Blackmagic Pocket 6K cameras.
#
BMD_TITLE "Pocket 6K Film to Extended Video"
LUT_3D_SIZE 5
0.0000000000 0.0000000000 0.0000000000
0.2382812500 0.0000000000 0.0000000000
0.6767578125 0.0000000000 0.0000000000
0.9541015625 0.0000000000 0.0000000000
0.9990234375 0.0000000000 0.0000000000
0.0000000000 0.2382812500 0.0000000000
0.2246093750 0.2246093750 0.0000000000
0.6621093750 0.2041015625 0.0000000000
0.9404296875 0.1914062500 0.0000000000
0.9990234375 0.1845703125 0.0000000000
0.0000000000 0.6767578125 0.0000000000
0.2041015625 0.6621093750 0.0000000000
0.6425781250 0.6425781250 0.0000000000
0.9199218750 0.6298828125 0.0000000000
0.9990234375 0.6230468750 0.0000000000
0.0000000000 0.9541015625 0.0000000000
0.1914062500 0.9404296875 0.0000000000
0.6298828125 0.9199218750 0.0000000000
0.9072265625 0.9072265625 0.0000000000
0.9990234375 0.9003906250 0.0000000000
0.0000000000 0.9990234375 0.0000000000
0.1845703125 0.9990234375 0.0000000000
0.6230468750 0.9990234375 0.0000000000
0.9003906250 0.9990234375 0.0000000000
0.9990234375 0.9990234375 0.0000000000
0.0000000000 0.0000000000 0.2382812500
0.2246093750 0.0000000000 0.2246093750
0.6621093750 0.0000000000 0.2041015625
0.9404296875 0.0000000000 0.1914062500
0.9990234375 0.0000000000 0.1845703125
0.0000000000 0.2246093750 0.2246093750
0.2099609375 0.2099609375 0.2099609375
0.6474609375 0.1904296875 0.1904296875
0.9257812500 0.1777343750 0.1777343750
0.9990234375 0.1708984375 0.1708984375
0.0000000000 0.6621093750 0.2041015625
0.1904296875 0.6474609375 0.1904296875
0.6279296875 0.6279296875 0.1708984375
0.9062500000 0.6152343750 0.1582031250
0.9990234375 0.6083984375 0.1513671875
0.0000000000 0.9404296875 0.1914062500
0.1777343750 0.9257812500 0.1777343750
0.6152343750 0.9062500000 0.1582031250
0.8935546875 0.8935546875 0.1455078125
0.9990234375 0.8867187500 0.1386718750
0.0000000000 0.9990234375 0.1845703125
0.1708984375 0.9990234375 0.1708984375
0.6083984375 0.9990234375 0.1513671875
0.8867187500 0.9990234375 0.1386718750
0.9990234375 0.9990234375 0.1318359375
0.0000000000 0.0000000000 0.6767578125
0.2041015625 0.0000000000 0.6621093750
0.6425781250 0.0000000000 0.6425781250
0.9199218750 0.0000000000 0.6298828125
0.9990234375 0.0000000000 0.6230468750
0.0000000000 0.2041015625 0.6621093750
0.1904296875 0.1904296875 0.6474609375
0.6279296875 0.1708984375 0.6279296875
0.9062500000 0.1582031250 0.6152343750
0.9990234375 0.1513671875 0.6083984375
0.0000000000 0.6425781250 0.6425781250
0.1708984375 0.6279296875 0.6279296875
0.6083984375 0.6083984375 0.6083984375
0.8857421875 0.5957031250 0.5957031250
0.9990234375 0.5888671875 0.5888671875
0.0000000000 0.9199218750 0.6298828125
0.1582031250 0.9062500000 0.6152343750
0.5957031250 0.8857421875 0.5957031250
0.8730468750 0.8730468750 0.5830078125
0.9990234375 0.8662109375 0.5761718750
0.0000000000 0.9990234375 0.6230468750
0.1513671875 0.9990234375 0.6083984375
0.5888671875 0.9990234375 0.5888671875
0.8662109375 0.9990234375 0.5761718750
0.9990234375 0.9990234375 0.5693359375
0.0000000000 0.0000000000 0.9541015625
0.1914062500 0.0000000000 0.9404296875
0.6298828125 0.0000000000 0.9199218750
0.9072265625 0.0000000000 0.9072265625
0.9990234375 0.0000000000 0.9003906250
0.0000000000 0.1914062500 0.9404296875
0.1777343750 0.1777343750 0.9257812500
0.6152343750 0.1582031250 0.9062500000
0.8935546875 0.1455078125 0.8935546875
0.9990234375 0.1386718750 0.8867187500
0.0000000000 0.6298828125 0.9199218750
0.1582031250 0.6152343750 0.9062500000
0.5957031250 0.5957031250 0.8857421875
0.8730468750 0.5830078125 0.8730468750
0.9990234375 0.5761718750 0.8662109375
0.0000000000 0.9072265625 0.9072265625
0.1455078125 0.8935546875 0.8935546875
0.5830078125 0.8730468750 0.8730468750
0.8603515625 0.8603515625 0.8603515625
0.9990234375 0.8535156250 0.8535156250
0.0000000000 0.9990234375 0.9003906250
0.1386718750 0.9990234375 0.8867187500
0.5761718750 0.9990234375 0.8662109375
0.8535156250 0.9990234375 0.8535156250
0.9990234375 0.9990234375 0.8466796875
0.0000000000 0.0000000000 0.9990234375
0.1845703125 0.0000000000 0.9990234375
0.6230468750 0.0000000000 0.9990234375
0.9003906250 0.0000000000 0.9990234375
0.9990234375 0.0000000000 0.9990234375
0.0000000000 0.1845703125 0.9990234375
0.1708984375 0.1708984375 0.9990234375
0.6083984375 0.1513671875 0.9990234375
0.8867187500 0.1386718750 0.9990234375
0.9990234375 0.1318359375 0.9990234375
0.0000000000 0.6230468750 0.9990234375
0.1513671875 0.6083984375 0.9990234375
0.5888671875 0.5888671875 0.9990234375
0.8662109375 0.5761718750 0.9990234375
0.9990234375 0.5693359375 0.9990234375
0.0000000000 0.9003906250 0.9990234375
0.1386718750 0.8867187500 0.9990234375
0.5761718750 0.8662109375 0.9990234375
0.8535156250 0.8535156250 0.9990234375
0.9990234375 0.8466796875 0.9990234375
0.0000000000 0.9990234375 0.9990234375
0.1318359375 0.9990234375 0.9990234375
0.5693359375 0.9990234375 0.9990234375
0.8466796875 0.9990234375 0.9990234375
0.9970703125 0.9970703125 0.9970703125
