luts/backup/BlackmagicPocket6KFilmtoVideov4.cube
# DaVinci Resolve Cube (3D LUT)
#
# Blackmagic Pocket 6K Film to Video v4
# Blackmagic Pocket 6K Film to Video using v4 Color Science.
# Matches the 'Video' output from Blackmagic Pocket 6K cameras.
#
BMD_TITLE "Pocket 6K Film to Video"
LUT_3D_SIZE 5
0.0000000000 0.0000000000 0.0000000000
0.2402343750 0.0000000000 0.0000000000
0.7109375000 0.0000000000 0.0000000000
0.9990234375 0.0000000000 0.0000000000
0.9990234375 0.0000000000 0.0000000000
0.0000000000 0.2402343750 0.0000000000
0.2255859375 0.2255859375 0.0000000000
0.6962890625 0.2041015625 0.0000000000
0.9990234375 0.1816406250 0.0000000000
0.9990234375 0.1816406250 0.0000000000
0.0000000000 0.7109375000 0.0000000000
0.2041015625 0.6962890625 0.0000000000
0.6757812500 0.6757812500 0.0000000000
0.9990234375 0.6533203125 0.0000000000
0.9990234375 0.6533203125 0.0000000000
0.0000000000 0.9990234375 0.0000000000
0.1816406250 0.9990234375 0.0000000000
0.6533203125 0.9990234375 0.0000000000
0.9990234375 0.9990234375 0.0000000000
0.9990234375 0.9990234375 0.0000000000
0.0000000000 0.9990234375 0.0000000000
0.1816406250 0.9990234375 0.0000000000
0.6533203125 0.9990234375 0.0000000000
0.9990234375 0.9990234375 0.0000000000
0.9990234375 0.9990234375 0.0000000000
0.0000000000 0.0000000000 0.2402343750
0.2255859375 0.0000000000 0.2255859375
0.6962890625 0.0000000000 0.2041015625
0.9990234375 0.0000000000 0.1816406250
0.9990234375 0.0000000000 0.1816406250
0.0000000000 0.2255859375 0.2255859375
0.2119140625 0.2119140625 0.2119140625
0.6826171875 0.1904296875 0.1904296875
0.9990234375 0.1679687500 0.1679687500
0.9990234375 0.1679687500 0.1679687500
0.0000000000 0.6962890625 0.2041015625
0.1904296875 0.6826171875 0.1904296875
0.6611328125 0.6611328125 0.1689453125
0.9990234375 0.6386718750 0.1464843750
0.9990234375 0.6386718750 0.1464843750
0.0000000000 0.9990234375 0.1816406250
0.1679687500 0.9990234375 0.1679687500
0.6386718750 0.9990234375 0.1464843750
0.9990234375 0.9990234375 0.1240234375
0.9990234375 0.9990234375 0.1240234375
0.0000000000 0.9990234375 0.1816406250
0.1679687500 0.9990234375 0.1679687500
0.6386718750 0.9990234375 0.1464843750
0.9990234375 0.9990234375 0.1240234375
0.9990234375 0.9990234375 0.1240234375
0.0000000000 0.0000000000 0.7109375000
0.2041015625 0.0000000000 0.6962890625
0.6757812500 0.0000000000 0.6757812500
0.9990234375 0.0000000000 0.6533203125
0.9990234375 0.0000000000 0.6533203125
0.0000000000 0.2041015625 0.6962890625
0.1904296875 0.1904296875 0.6826171875
0.6611328125 0.1689453125 0.6611328125
0.9990234375 0.1464843750 0.6386718750
0.9990234375 0.1464843750 0.6386718750
0.0000000000 0.6757812500 0.6757812500
0.1689453125 0.6611328125 0.6611328125
0.6396484375 0.6396484375 0.6396484375
0.9990234375 0.6171875000 0.6171875000
0.9990234375 0.6171875000 0.6171875000
0.0000000000 0.9990234375 0.6533203125
0.1464843750 0.9990234375 0.6386718750
0.6171875000 0.9990234375 0.6171875000
0.9990234375 0.9990234375 0.5957031250
0.9990234375 0.9990234375 0.5957031250
0.0000000000 0.9990234375 0.6533203125
0.1464843750 0.9990234375 0.6386718750
0.6171875000 0.9990234375 0.6171875000
0.9990234375 0.9990234375 0.5957031250
0.9990234375 0.9990234375 0.5957031250
0.0000000000 0.0000000000 0.9990234375
0.1816406250 0.0000000000 0.9990234375
0.6533203125 0.0000000000 0.9990234375
0.9990234375 0.0000000000 0.9990234375
0.9990234375 0.0000000000 0.9990234375
0.0000000000 0.1816406250 0.9990234375
0.1679687500 0.1679687500 0.9990234375
0.6386718750 0.1464843750 0.9990234375
0.9990234375 0.1240234375 0.9990234375
0.9990234375 0.1240234375 0.9990234375
0.0000000000 0.6533203125 0.9990234375
0.1464843750 0.6386718750 0.9990234375
0.6171875000 0.6171875000 0.9990234375
0.9990234375 0.5957031250 0.9990234375
0.9990234375 0.5957031250 0.9990234375
0.0000000000 0.9990234375 0.9990234375
0.1240234375 0.9990234375 0.9990234375
0.5957031250 0.9990234375 0.9990234375
0.9990234375 0.9990234375 0.9990234375
0.9990234375 0.9990234375 0.9990234375
0.0000000000 0.9990234375 0.9990234375
0.1240234375 0.9990234375 0.9990234375
0.5957031250 0.9990234375 0.9990234375
0.9990234375 0.9990234375 0.9990234375
0.9990234375 0.9990234375 0.9990234375
0.0000000000 0.0000000000 0.9990234375
0.1816406250 0.0000000000 0.9990234375
0.6533203125 0.0000000000 0.9990234375
0.9990234375 0.0000000000 0.9990234375
0.9990234375 0.0000000000 0.9990234375
0.0000000000 0.1816406250 0.9990234375
0.1679687500 0.1679687500 0.9990234375
0.6386718750 0.1464843750 0.9990234375
0.9990234375 0.1240234375 0.9990234375
0.9990234375 0.1240234375 0.9990234375
0.0000000000 0.6533203125 0.9990234375
0.1464843750 0.6386718750 0.9990234375
0.6171875000 0.6171875000 0.9990234375
0.9990234375 0.5957031250 0.9990234375
0.9990234375 0.5957031250 0.9990234375
0.0000000000 0.9990234375 0.9990234375
0.1240234375 0.9990234375 0.9990234375
0.5957031250 0.9990234375 0.9990234375
0.9990234375 0.9990234375 0.9990234375
0.9990234375 0.9990234375 0.9990234375
0.0000000000 0.9990234375 0.9990234375
0.1240234375 0.9990234375 0.9990234375
0.5957031250 0.9990234375 0.9990234375
0.9990234375 0.9990234375 0.9990234375
0.9990234375 0.9990234375 0.9990234375
