luts/backup/BlackmagicPocket6KFilmtoExtendedVideov4.cube
# DaVinci Resolve Cube (3D LUT)
#
# Blackmagic Pocket 6K Film to Extended Video v4
# Blackmagic Pocket 6K Film to Extended Video using v4 Color Science.
# Matches the 'Extended Video' output from Blackmagic Pocket 6K cameras.
#
BMD_TITLE "Pocket 6K Film to Extended Video"
LUT_3D_SIZE 33
0.0000000000 0.0000000000 0.0000000000
0.0000000000 0.0000000000 0.0000000000
0.0000000000 0.0000000000 0.0000000000
0.0322265625 0.0000000000 0.0000000000
0.0722656250 0.0000000000 0.0000000000
0.1123046875 0.0000000000 0.0000000000
0.1533203125 0.0000000000 0.0000000000
0.1953125000 0.0000000000 0.0000000000
0.2382812500 0.0000000000 0.0000000000
0.2832031250 0.0000000000 0.0000000000
0.3310546875 0.0000000000 0.0000000000
0.3828125000 0.0000000000 0.0000000000
0.4414062500 0.0000000000 0.0000000000
0.5019531250 0.0000000000 0.0000000000
0.5605468750 0.0000000000 0.0000000000
0.6191406250 0.0000000000 0.0000000000
0.6767578125 0.0000000000 0.0000000000
0.7246093750 0.0000000000 0.0000000000
0.7656250000 0.0000000000 0.0000000000
0.8037109375 0.0000000000 0.0000000000
0.8378906250 0.0000000000 0.0000000000
0.8701171875 0.0000000000 0.0000000000
0.9003906250 0.0000000000 0.0000000000
0.9277343750 0.0000000000 0.0000000000
0.9541015625 0.0000000000 0.0000000000
0.9785156250 0.0000000000 0.0000000000
0.9990234375 0.0000000000 0.0000000000
0.9990234375 0.0000000000 0.0000000000
0.9990234375 0.0000000000 0.0000000000
0.9990234375 0.0000000000 0.0000000000
0.9990234375 0.0000000000 0.0000000000
0.9990234375 0.0000000000 0.0000000000
0.9990234375 0.0000000000 0.0000000000
0.0000000000 0.0000000000 0.0000000000
0.0000000000 0.0000000000 0.0000000000
0.0000000000 0.0000000000 0.0000000000
0.0302734375 0.0000000000 0.0000000000
0.0703125000 0.0000000000 0.0000000000
0.1113281250 0.0000000000 0.0000000000
0.1523437500 0.0000000000 0.0000000000
0.1943359375 0.0000000000 0.0000000000
0.2373046875 0.0000000000 0.0000000000
0.2822265625 0.0000000000 0.0000000000
0.3291015625 0.0000000000 0.0000000000
0.3808593750 0.0000000000 0.0000000000
0.4404296875 0.0000000000 0.0000000000
0.5000000000 0.0000000000 0.0000000000
0.5595703125 0.0000000000 0.0000000000
0.6181640625 0.0000000000 0.0000000000
0.6748046875 0.0000000000 0.0000000000
0.7226562500 0.0000000000 0.0000000000
0.7646484375 0.0000000000 0.0000000000
0.8017578125 0.0000000000 0.0000000000
0.8369140625 0.0000000000 0.0000000000
0.8681640625 0.0000000000 0.0000000000
0.8984375000 0.0000000000 0.0000000000
0.9267578125 0.0000000000 0.0000000000
0.9521484375 0.0000000000 0.0000000000
0.9775390625 0.0000000000 0.0000000000
0.9990234375 0.0000000000 0.0000000000
0.9990234375 0.0000000000 0.0000000000
0.9990234375 0.0000000000 0.0000000000
0.9990234375 0.0000000000 0.0000000000
0.9990234375 0.0000000000 0.0000000000
0.9990234375 0.0000000000 0.0000000000
0.9990234375 0.0000000000 0.0000000000
0.0000000000 0.0000000000 0.0000000000
0.0000000000 0.0000000000 0.0000000000
0.0000000000 0.0000000000 0.0000000000
0.0292968750 0.0000000000 0.0000000000
0.0693359375 0.0000000000 0.0000000000
0.1093750000 0.0000000000 0.0000000000
0.1503906250 0.0000000000 0.0000000000
0.1923828125 0.0000000000 0.0000000000
0.2353515625 0.0000000000 0.0000000000
0.2802734375 0.0000000000 0.0000000000
0.3271484375 0.0000000000 0.0000000000
0.3798828125 0.0000000000 0.0000000000
0.4384765625 0.0000000000 0.0000000000
0.4990234375 0.0000000000 0.0000000000
0.5576171875 0.0000000000 0.0000000000
0.6162109375 0.0000000000 0.0000000000
0.6728515625 0.0000000000 0.0000000000
0.7207031250 0.0000000000 0.0000000000
0.7626953125 0.0000000000 0.0000000000
0.8007812500 0.0000000000 0.0000000000
0.8349609375 0.0000000000 0.0000000000
0.8671875000 0.0000000000 0.0000000000
0.8964843750 0.0000000000 0.0000000000
0.9248046875 0.0000000000 0.0000000000
0.9511718750 0.0000000000 0.0000000000
0.9755859375 0.0000000000 0.0000000000
0.9980468750 0.0000000000 0.0000000000
0.9990234375 0.0000000000 0.0000000000
0.9990234375 0.0000000000 0.0000000000
0.9990234375 0.0000000000 0.0000000000
0.9990234375 0.0000000000 0.0000000000
0.9990234375 0.0000000000 0.0000000000
0.9990234375 0.0000000000 0.0000000000
0.0000000000 0.0322265625 0.0000000000
0.0000000000 0.0302734375 0.0000000000
0.0000000000 0.0292968750 0.0000000000
0.0273437500 0.0273437500 0.0000000000
0.0673828125 0.0253906250 0.0000000000
0.1074218750 0.0234375000 0.0000000000
0.1494140625 0.0214843750 0.0000000000
0.1904296875 0.0195312500 0.0000000000
0.2333984375 0.0175781250 0.0000000000
0.2783203125 0.0156250000 0.0000000000
0.3261718750 0.0136718750 0.0000000000
0.3779296875 0.0117187500 0.0000000000
0.4375000000 0.0087890625 0.0000000000
0.4970703125 0.0058593750 0.0000000000
0.5556640625 0.0029296875 0.0000000000
0.6152343750 0.0009765625 0.0000000000
0.6718750000 0.0000000000 0.0000000000
0.7197265625 0.0000000000 0.0000000000
0.7607421875 0.0000000000 0.0000000000
0.7988281250 0.0000000000 0.0000000000
0.8330078125 0.0000000000 0.0000000000
0.8652343750 0.0000000000 0.0000000000
0.8955078125 0.0000000000 0.0000000000
0.9228515625 0.0000000000 0.0000000000
0.9492187500 0.0000000000 0.0000000000
0.9736328125 0.0000000000 0.0000000000
0.9970703125 0.0000000000 0.0000000000
0.9990234375 0.0000000000 0.0000000000
0.9990234375 0.0000000000 0.0000000000
0.9990234375 0.0000000000 0.0000000000
0.9990234375 0.0000000000 0.0000000000
0.9990234375 0.0000000000 0.0000000000
0.9990234375 0.0000000000 0.0000000000
0.0000000000 0.0722656250 0.0000000000
0.0000000000 0.0703125000 0.0000000000
0.0000000000 0.0693359375 0.0000000000
0.0253906250 0.0673828125 0.0000000000
0.0654296875 0.0654296875 0.0000000000
0.1064453125 0.0634765625 0.0000000000
0.1474609375 0.0615234375 0.0000000000
0.1894531250 0.0595703125 0.0000000000
0.2324218750 0.0576171875 0.0000000000
0.2763671875 0.0556640625 0.0000000000
0.3242187500 0.0537109375 0.0000000000
0.3759765625 0.0517578125 0.0000000000
0.4355468750 0.0488281250 0.0000000000
0.4951171875 0.0458984375 0.0000000000
0.5546875000 0.0429687500 0.0000000000
0.6132812500 0.0410156250 0.0000000000
0.6699218750 0.0380859375 0.0000000000
0.7177734375 0.0361328125 0.0000000000
0.7597656250 0.0341796875 0.0000000000
0.7968750000 0.0322265625 0.0000000000
0.8320312500 0.0302734375 0.0000000000
0.8632812500 0.0292968750 0.0000000000
0.8935546875 0.0283203125 0.0000000000
0.9208984375 0.0263671875 0.0000000000
0.9472656250 0.0253906250 0.0000000000
0.9716796875 0.0244140625 0.0000000000
0.9951171875 0.0234375000 0.0000000000
0.9990234375 0.0224609375 0.0000000000
0.9990234375 0.0214843750 0.0000000000
0.9990234375 0.0205078125 0.0000000000
0.9990234375 0.0195312500 0.0000000000
0.9990234375 0.0195312500 0.0000000000
0.9990234375 0.0185546875 0.0000000000
0.0000000000 0.1123046875 0.0000000000
0.0000000000 0.1113281250 0.0000000000
0.0000000000 0.1093750000 0.0000000000
0.0234375000 0.1074218750 0.0000000000
0.0634765625 0.1064453125 0.0000000000
0.1044921875 0.1044921875 0.0000000000
0.1455078125 0.1025390625 0.0000000000
0.1875000000 0.1005859375 0.0000000000
0.2304687500 0.0986328125 0.0000000000
0.2744140625 0.0966796875 0.0000000000
0.3222656250 0.0947265625 0.0000000000
0.3740234375 0.0917968750 0.0000000000
0.4335937500 0.0888671875 0.0000000000
0.4931640625 0.0869140625 0.0000000000
0.5527343750 0.0839843750 0.0000000000
0.6113281250 0.0810546875 0.0000000000
0.6679687500 0.0791015625 0.0000000000
0.7158203125 0.0761718750 0.0000000000
0.7578125000 0.0742187500 0.0000000000
0.7949218750 0.0732421875 0.0000000000
0.8300781250 0.0712890625 0.0000000000
0.8613281250 0.0693359375 0.0000000000
0.8916015625 0.0683593750 0.0000000000
0.9199218750 0.0673828125 0.0000000000
0.9453125000 0.0664062500 0.0000000000
0.9707031250 0.0644531250 0.0000000000
0.9931640625 0.0634765625 0.0000000000
0.9990234375 0.0625000000 0.0000000000
0.9990234375 0.0615234375 0.0000000000
0.9990234375 0.0615234375 0.0000000000
0.9990234375 0.0605468750 0.0000000000
0.9990234375 0.0595703125 0.0000000000
0.9990234375 0.0595703125 0.0000000000
0.0000000000 0.1533203125 0.0000000000
0.0000000000 0.1523437500 0.0000000000
0.0000000000 0.1503906250 0.0000000000
0.0214843750 0.1494140625 0.0000000000
0.0615234375 0.1474609375 0.0000000000
0.1025390625 0.1455078125 0.0000000000
0.1435546875 0.1435546875 0.0000000000
0.1855468750 0.1416015625 0.0000000000
0.2285156250 0.1396484375 0.0000000000
0.2734375000 0.1376953125 0.0000000000
0.3203125000 0.1357421875 0.0000000000
0.3720703125 0.1328125000 0.0000000000
0.4316406250 0.1298828125 0.0000000000
0.4912109375 0.1279296875 0.0000000000
0.5507812500 0.1250000000 0.0000000000
0.6093750000 0.1220703125 0.0000000000
0.6660156250 0.1201171875 0.0000000000
0.7138671875 0.1171875000 0.0000000000
0.7558593750 0.1152343750 0.0000000000
0.7929687500 0.1142578125 0.0000000000
0.8281250000 0.1123046875 0.0000000000
0.8593750000 0.1113281250 0.0000000000
0.8896484375 0.1093750000 0.0000000000
0.9179687500 0.1083984375 0.0000000000
0.9433593750 0.1074218750 0.0000000000
0.9687500000 0.1054687500 0.0000000000
0.9912109375 0.1044921875 0.0000000000
0.9990234375 0.1035156250 0.0000000000
0.9990234375 0.1035156250 0.0000000000
0.9990234375 0.1025390625 0.0000000000
0.9990234375 0.1015625000 0.0000000000
0.9990234375 0.1005859375 0.0000000000
0.9990234375 0.1005859375 0.0000000000
0.0000000000 0.1953125000 0.0000000000
0.0000000000 0.1943359375 0.0000000000
0.0000000000 0.1923828125 0.0000000000
0.0195312500 0.1904296875 0.0000000000
0.0595703125 0.1894531250 0.0000000000
0.1005859375 0.1875000000 0.0000000000
0.1416015625 0.1855468750 0.0000000000
0.1835937500 0.1835937500 0.0000000000
0.2265625000 0.1816406250 0.0000000000
0.2714843750 0.1796875000 0.0000000000
0.3183593750 0.1767578125 0.0000000000
0.3701171875 0.1748046875 0.0000000000
0.4296875000 0.1718750000 0.0000000000
0.4892578125 0.1699218750 0.0000000000
0.5488281250 0.1669921875 0.0000000000
0.6074218750 0.1640625000 0.0000000000
0.6640625000 0.1611328125 0.0000000000
0.7119140625 0.1591796875 0.0000000000
0.7539062500 0.1572265625 0.0000000000
0.7910156250 0.1552734375 0.0000000000
0.8261718750 0.1542968750 0.0000000000
0.8583984375 0.1523437500 0.0000000000
0.8876953125 0.1513671875 0.0000000000
0.9160156250 0.1503906250 0.0000000000
0.9423828125 0.1484375000 0.0000000000
0.9667968750 0.1474609375 0.0000000000
0.9892578125 0.1464843750 0.0000000000
0.9990234375 0.1455078125 0.0000000000
0.9990234375 0.1445312500 0.0000000000
0.9990234375 0.1435546875 0.0000000000
0.9990234375 0.1435546875 0.0000000000
0.9990234375 0.1425781250 0.0000000000
0.9990234375 0.1416015625 0.0000000000
0.0000000000 0.2382812500 0.0000000000
0.0000000000 0.2373046875 0.0000000000
0.0000000000 0.2353515625 0.0000000000
0.0175781250 0.2333984375 0.0000000000
0.0576171875 0.2324218750 0.0000000000
0.0986328125 0.2304687500 0.0000000000
0.1396484375 0.2285156250 0.0000000000
0.1816406250 0.2265625000 0.0000000000
0.2246093750 0.2246093750 0.0000000000
0.2695312500 0.2226562500 0.0000000000
0.3164062500 0.2197265625 0.0000000000
0.3681640625 0.2177734375 0.0000000000
0.4277343750 0.2148437500 0.0000000000
0.4873046875 0.2128906250 0.0000000000
0.5468750000 0.2099609375 0.0000000000
0.6054687500 0.2070312500 0.0000000000
0.6621093750 0.2041015625 0.0000000000
0.7099609375 0.2021484375 0.0000000000
0.7519531250 0.2001953125 0.0000000000
0.7890625000 0.1982421875 0.0000000000
0.8242187500 0.1972656250 0.0000000000
0.8564453125 0.1953125000 0.0000000000
0.8857421875 0.1943359375 0.0000000000
0.9140625000 0.1933593750 0.0000000000
0.9404296875 0.1914062500 0.0000000000
0.9648437500 0.1904296875 0.0000000000
0.9873046875 0.1894531250 0.0000000000
0.9990234375 0.1884765625 0.0000000000
0.9990234375 0.1875000000 0.0000000000
0.9990234375 0.1875000000 0.0000000000
0.9990234375 0.1865234375 0.0000000000
0.9990234375 0.1855468750 0.0000000000
0.9990234375 0.1845703125 0.0000000000
0.0000000000 0.2832031250 0.0000000000
0.0000000000 0.2822265625 0.0000000000
0.0000000000 0.2802734375 0.0000000000
0.0156250000 0.2783203125 0.0000000000
0.0556640625 0.2763671875 0.0000000000
0.0966796875 0.2744140625 0.0000000000
0.1376953125 0.2734375000 0.0000000000
0.1796875000 0.2714843750 0.0000000000
0.2226562500 0.2695312500 0.0000000000
0.2675781250 0.2675781250 0.0000000000
0.3144531250 0.2646484375 0.0000000000
0.3662109375 0.2626953125 0.0000000000
0.4257812500 0.2597656250 0.0000000000
0.4853515625 0.2568359375 0.0000000000
0.5449218750 0.2548828125 0.0000000000
0.6035156250 0.2519531250 0.0000000000
0.6601562500 0.2490234375 0.0000000000
0.7080078125 0.2470703125 0.0000000000
0.7500000000 0.2451171875 0.0000000000
0.7871093750 0.2431640625 0.0000000000
0.8222656250 0.2421875000 0.0000000000
0.8535156250 0.2402343750 0.0000000000
0.8837890625 0.2392578125 0.0000000000
0.9121093750 0.2382812500 0.0000000000
0.9375000000 0.2363281250 0.0000000000
0.9628906250 0.2353515625 0.0000000000
0.9853515625 0.2343750000 0.0000000000
0.9990234375 0.2333984375 0.0000000000
0.9990234375 0.2324218750 0.0000000000
0.9990234375 0.2314453125 0.0000000000
0.9990234375 0.2314453125 0.0000000000
0.9990234375 0.2304687500 0.0000000000
0.9990234375 0.2294921875 0.0000000000
0.0000000000 0.3310546875 0.0000000000
0.0000000000 0.3291015625 0.0000000000
0.0000000000 0.3271484375 0.0000000000
0.0136718750 0.3261718750 0.0000000000
0.0537109375 0.3242187500 0.0000000000
0.0947265625 0.3222656250 0.0000000000
0.1357421875 0.3203125000 0.0000000000
0.1767578125 0.3183593750 0.0000000000
0.2197265625 0.3164062500 0.0000000000
0.2646484375 0.3144531250 0.0000000000
0.3125000000 0.3125000000 0.0000000000
0.3642578125 0.3095703125 0.0000000000
0.4238281250 0.3076171875 0.0000000000
0.4833984375 0.3046875000 0.0000000000
0.5429687500 0.3017578125 0.0000000000
0.6015625000 0.2988281250 0.0000000000
0.6582031250 0.2968750000 0.0000000000
0.7060546875 0.2949218750 0.0000000000
0.7480468750 0.2929687500 0.0000000000
0.7851562500 0.2910156250 0.0000000000
0.8193359375 0.2890625000 0.0000000000
0.8515625000 0.2880859375 0.0000000000
0.8818359375 0.2861328125 0.0000000000
0.9091796875 0.2851562500 0.0000000000
0.9355468750 0.2841796875 0.0000000000
0.9599609375 0.2832031250 0.0000000000
0.9833984375 0.2822265625 0.0000000000
0.9990234375 0.2812500000 0.0000000000
0.9990234375 0.2802734375 0.0000000000
0.9990234375 0.2792968750 0.0000000000
0.9990234375 0.2783203125 0.0000000000
0.9990234375 0.2773437500 0.0000000000
0.9990234375 0.2773437500 0.0000000000
0.0000000000 0.3828125000 0.0000000000
0.0000000000 0.3808593750 0.0000000000
0.0000000000 0.3798828125 0.0000000000
0.0117187500 0.3779296875 0.0000000000
0.0517578125 0.3759765625 0.0000000000
0.0917968750 0.3740234375 0.0000000000
0.1328125000 0.3720703125 0.0000000000
0.1748046875 0.3701171875 0.0000000000
0.2177734375 0.3681640625 0.0000000000
0.2626953125 0.3662109375 0.0000000000
0.3095703125 0.3642578125 0.0000000000
0.3623046875 0.3623046875 0.0000000000
0.4208984375 0.3593750000 0.0000000000
0.4814453125 0.3564453125 0.0000000000
0.5400390625 0.3535156250 0.0000000000
0.5986328125 0.3515625000 0.0000000000
0.6552734375 0.3486328125 0.0000000000
0.7031250000 0.3466796875 0.0000000000
0.7451171875 0.3447265625 0.0000000000
0.7832031250 0.3427734375 0.0000000000
0.8173828125 0.3408203125 0.0000000000
0.8496093750 0.3398437500 0.0000000000
0.8789062500 0.3388671875 0.0000000000
0.9072265625 0.3369140625 0.0000000000
0.9335937500 0.3359375000 0.0000000000
0.9580078125 0.3349609375 0.0000000000
0.9804687500 0.3339843750 0.0000000000
0.9990234375 0.3330078125 0.0000000000
0.9990234375 0.3320312500 0.0000000000
0.9990234375 0.3310546875 0.0000000000
0.9990234375 0.3300781250 0.0000000000
0.9990234375 0.3300781250 0.0000000000
0.9990234375 0.3291015625 0.0000000000
0.0000000000 0.4414062500 0.0000000000
0.0000000000 0.4404296875 0.0000000000
0.0000000000 0.4384765625 0.0000000000
0.0087890625 0.4375000000 0.0000000000
0.0488281250 0.4355468750 0.0000000000
0.0888671875 0.4335937500 0.0000000000
0.1298828125 0.4316406250 0.0000000000
0.1718750000 0.4296875000 0.0000000000
0.2148437500 0.4277343750 0.0000000000
0.2597656250 0.4257812500 0.0000000000
0.3076171875 0.4238281250 0.0000000000
0.3593750000 0.4208984375 0.0000000000
0.4189453125 0.4189453125 0.0000000000
0.4785156250 0.4160156250 0.0000000000
0.5371093750 0.4130859375 0.0000000000
0.5957031250 0.4101562500 0.0000000000
0.6533203125 0.4082031250 0.0000000000
0.7011718750 0.4052734375 0.0000000000
0.7421875000 0.4033203125 0.0000000000
0.7802734375 0.4023437500 0.0000000000
0.8144531250 0.4003906250 0.0000000000
0.8466796875 0.3994140625 0.0000000000
0.8769531250 0.3974609375 0.0000000000
0.9042968750 0.3964843750 0.0000000000
0.9306640625 0.3955078125 0.0000000000
0.9550781250 0.3945312500 0.0000000000
0.9785156250 0.3925781250 0.0000000000
0.9990234375 0.3916015625 0.0000000000
0.9990234375 0.3916015625 0.0000000000
0.9990234375 0.3906250000 0.0000000000
0.9990234375 0.3896484375 0.0000000000
0.9990234375 0.3886718750 0.0000000000
0.9990234375 0.3886718750 0.0000000000
0.0000000000 0.5019531250 0.0000000000
0.0000000000 0.5000000000 0.0000000000
0.0000000000 0.4990234375 0.0000000000
0.0058593750 0.4970703125 0.0000000000
0.0458984375 0.4951171875 0.0000000000
0.0869140625 0.4931640625 0.0000000000
0.1279296875 0.4912109375 0.0000000000
0.1699218750 0.4892578125 0.0000000000
0.2128906250 0.4873046875 0.0000000000
0.2568359375 0.4853515625 0.0000000000
0.3046875000 0.4833984375 0.0000000000
0.3564453125 0.4814453125 0.0000000000
0.4160156250 0.4785156250 0.0000000000
0.4755859375 0.4755859375 0.0000000000
0.5351562500 0.4726562500 0.0000000000
0.5937500000 0.4707031250 0.0000000000
0.6503906250 0.4677734375 0.0000000000
0.6982421875 0.4658203125 0.0000000000
0.7402343750 0.4638671875 0.0000000000
0.7773437500 0.4619140625 0.0000000000
0.8125000000 0.4599609375 0.0000000000
0.8437500000 0.4589843750 0.0000000000
0.8740234375 0.4570312500 0.0000000000
0.9013671875 0.4560546875 0.0000000000
0.9277343750 0.4550781250 0.0000000000
0.9521484375 0.4541015625 0.0000000000
0.9755859375 0.4531250000 0.0000000000
0.9970703125 0.4521484375 0.0000000000
0.9990234375 0.4511718750 0.0000000000
0.9990234375 0.4501953125 0.0000000000
0.9990234375 0.4492187500 0.0000000000
0.9990234375 0.4492187500 0.0000000000
0.9990234375 0.4482421875 0.0000000000
0.0000000000 0.5605468750 0.0000000000
0.0000000000 0.5595703125 0.0000000000
0.0000000000 0.5576171875 0.0000000000
0.0029296875 0.5556640625 0.0000000000
0.0429687500 0.5546875000 0.0000000000
0.0839843750 0.5527343750 0.0000000000
0.1250000000 0.5507812500 0.0000000000
0.1669921875 0.5488281250 0.0000000000
0.2099609375 0.5468750000 0.0000000000
0.2548828125 0.5449218750 0.0000000000
0.3017578125 0.5429687500 0.0000000000
0.3535156250 0.5400390625 0.0000000000
0.4130859375 0.5371093750 0.0000000000
0.4726562500 0.5351562500 0.0000000000
0.5322265625 0.5322265625 0.0000000000
0.5908203125 0.5292968750 0.0000000000
0.6474609375 0.5263671875 0.0000000000
0.6953125000 0.5244140625 0.0000000000
0.7373046875 0.5224609375 0.0000000000
0.7744140625 0.5214843750 0.0000000000
0.8095703125 0.5195312500 0.0000000000
0.8417968750 0.5175781250 0.0000000000
0.8710937500 0.5166015625 0.0000000000
0.8994140625 0.5156250000 0.0000000000
0.9257812500 0.5146484375 0.0000000000
0.9501953125 0.5126953125 0.0000000000
0.9726562500 0.5117187500 0.0000000000
0.9941406250 0.5107421875 0.0000000000
0.9990234375 0.5097656250 0.0000000000
0.9990234375 0.5097656250 0.0000000000
0.9990234375 0.5087890625 0.0000000000
0.9990234375 0.5078125000 0.0000000000
0.9990234375 0.5078125000 0.0000000000
0.0000000000 0.6191406250 0.0000000000
0.0000000000 0.6181640625 0.0000000000
0.0000000000 0.6162109375 0.0000000000
0.0009765625 0.6152343750 0.0000000000
0.0410156250 0.6132812500 0.0000000000
0.0810546875 0.6113281250 0.0000000000
0.1220703125 0.6093750000 0.0000000000
0.1640625000 0.6074218750 0.0000000000
0.2070312500 0.6054687500 0.0000000000
0.2519531250 0.6035156250 0.0000000000
0.2988281250 0.6015625000 0.0000000000
0.3515625000 0.5986328125 0.0000000000
0.4101562500 0.5957031250 0.0000000000
0.4707031250 0.5937500000 0.0000000000
0.5292968750 0.5908203125 0.0000000000
0.5878906250 0.5878906250 0.0000000000
0.6445312500 0.5859375000 0.0000000000
0.6923828125 0.5830078125 0.0000000000
0.7343750000 0.5810546875 0.0000000000
0.7724609375 0.5800781250 0.0000000000
0.8066406250 0.5781250000 0.0000000000
0.8388671875 0.5771484375 0.0000000000
0.8681640625 0.5751953125 0.0000000000
0.8964843750 0.5742187500 0.0000000000
0.9228515625 0.5732421875 0.0000000000
0.9472656250 0.5712890625 0.0000000000
0.9697265625 0.5703125000 0.0000000000
0.9912109375 0.5693359375 0.0000000000
0.9990234375 0.5683593750 0.0000000000
0.9990234375 0.5683593750 0.0000000000
0.9990234375 0.5673828125 0.0000000000
0.9990234375 0.5664062500 0.0000000000
0.9990234375 0.5664062500 0.0000000000
0.0000000000 0.6767578125 0.0000000000
0.0000000000 0.6748046875 0.0000000000
0.0000000000 0.6728515625 0.0000000000
0.0000000000 0.6718750000 0.0000000000
0.0380859375 0.6699218750 0.0000000000
0.0791015625 0.6679687500 0.0000000000
0.1201171875 0.6660156250 0.0000000000
0.1611328125 0.6640625000 0.0000000000
0.2041015625 0.6621093750 0.0000000000
0.2490234375 0.6601562500 0.0000000000
0.2968750000 0.6582031250 0.0000000000
0.3486328125 0.6552734375 0.0000000000
0.4082031250 0.6533203125 0.0000000000
0.4677734375 0.6503906250 0.0000000000
0.5263671875 0.6474609375 0.0000000000
0.5859375000 0.6445312500 0.0000000000
0.6425781250 0.6425781250 0.0000000000
0.6904296875 0.6396484375 0.0000000000
0.7314453125 0.6376953125 0.0000000000
0.7695312500 0.6367187500 0.0000000000
0.8037109375 0.6347656250 0.0000000000
0.8359375000 0.6337890625 0.0000000000
0.8662109375 0.6318359375 0.0000000000
0.8935546875 0.6308593750 0.0000000000
0.9199218750 0.6298828125 0.0000000000
0.9443359375 0.6289062500 0.0000000000
0.9677734375 0.6269531250 0.0000000000
0.9892578125 0.6259765625 0.0000000000
0.9990234375 0.6259765625 0.0000000000
0.9990234375 0.6250000000 0.0000000000
0.9990234375 0.6240234375 0.0000000000
0.9990234375 0.6230468750 0.0000000000
0.9990234375 0.6230468750 0.0000000000
0.0000000000 0.7246093750 0.0000000000
0.0000000000 0.7226562500 0.0000000000
0.0000000000 0.7207031250 0.0000000000
0.0000000000 0.7197265625 0.0000000000
0.0361328125 0.7177734375 0.0000000000
0.0761718750 0.7158203125 0.0000000000
0.1171875000 0.7138671875 0.0000000000
0.1591796875 0.7119140625 0.0000000000
0.2021484375 0.7099609375 0.0000000000
0.2470703125 0.7080078125 0.0000000000
0.2949218750 0.7060546875 0.0000000000
0.3466796875 0.7031250000 0.0000000000
0.4052734375 0.7011718750 0.0000000000
0.4658203125 0.6982421875 0.0000000000
0.5244140625 0.6953125000 0.0000000000
0.5830078125 0.6923828125 0.0000000000
0.6396484375 0.6904296875 0.0000000000
0.6875000000 0.6875000000 0.0000000000
0.7294921875 0.6865234375 0.0000000000
0.7675781250 0.6845703125 0.0000000000
0.8017578125 0.6826171875 0.0000000000
0.8339843750 0.6816406250 0.0000000000
0.8642578125 0.6796875000 0.0000000000
0.8916015625 0.6787109375 0.0000000000
0.9179687500 0.6777343750 0.0000000000
0.9423828125 0.6767578125 0.0000000000
0.9658203125 0.6757812500 0.0000000000
0.9863281250 0.6748046875 0.0000000000
0.9990234375 0.6738281250 0.0000000000
0.9990234375 0.6728515625 0.0000000000
0.9990234375 0.6718750000 0.0000000000
0.9990234375 0.6708984375 0.0000000000
0.9990234375 0.6708984375 0.0000000000
0.0000000000 0.7656250000 0.0000000000
0.0000000000 0.7646484375 0.0000000000
0.0000000000 0.7626953125 0.0000000000
0.0000000000 0.7607421875 0.0000000000
0.0341796875 0.7597656250 0.0000000000
0.0742187500 0.7578125000 0.0000000000
0.1152343750 0.7558593750 0.0000000000
0.1572265625 0.7539062500 0.0000000000
0.2001953125 0.7519531250 0.0000000000
0.2451171875 0.7500000000 0.0000000000
0.2929687500 0.7480468750 0.0000000000
0.3447265625 0.7451171875 0.0000000000
0.4033203125 0.7421875000 0.0000000000
0.4638671875 0.7402343750 0.0000000000
