luts/backup/BlackmagicPocket6KFilmtoVideov4.cube
# DaVinci Resolve Cube (3D LUT)
#
# Blackmagic Pocket 6K Film to Video v4
# Blackmagic Pocket 6K Film to Video using v4 Color Science.
# Matches the 'Video' output from Blackmagic Pocket 6K cameras.
#
BMD_TITLE "Pocket 6K Film to Video"
LUT_3D_SIZE 33
0.0000000000 0.0000000000 0.0000000000
0.0000000000 0.0000000000 0.0000000000
0.0000000000 0.0000000000 0.0000000000
0.0283203125 0.0000000000 0.0000000000
0.0644531250 0.0000000000 0.0000000000
0.1074218750 0.0000000000 0.0000000000
0.1513671875 0.0000000000 0.0000000000
0.1953125000 0.0000000000 0.0000000000
0.2402343750 0.0000000000 0.0000000000
0.2861328125 0.0000000000 0.0000000000
0.3349609375 0.0000000000 0.0000000000
0.3867187500 0.0000000000 0.0000000000
0.4423828125 0.0000000000 0.0000000000
0.5009765625 0.0000000000 0.0000000000
0.5654296875 0.0000000000 0.0000000000
0.6357421875 0.0000000000 0.0000000000
0.7109375000 0.0000000000 0.0000000000
0.7929687500 0.0000000000 0.0000000000
0.8818359375 0.0000000000 0.0000000000
0.9755859375 0.0000000000 0.0000000000
0.9990234375 0.0000000000 0.0000000000
0.9990234375 0.0000000000 0.0000000000
0.9990234375 0.0000000000 0.0000000000
0.9990234375 0.0000000000 0.0000000000
0.9990234375 0.0000000000 0.0000000000
0.9990234375 0.0000000000 0.0000000000
0.9990234375 0.0000000000 0.0000000000
0.9990234375 0.0000000000 0.0000000000
0.9990234375 0.0000000000 0.0000000000
0.9990234375 0.0000000000 0.0000000000
0.9990234375 0.0000000000 0.0000000000
0.9990234375 0.0000000000 0.0000000000
0.9990234375 0.0000000000 0.0000000000
0.0000000000 0.0000000000 0.0000000000
0.0000000000 0.0000000000 0.0000000000
0.0000000000 0.0000000000 0.0000000000
0.0273437500 0.0000000000 0.0000000000
0.0634765625 0.0000000000 0.0000000000
0.1064453125 0.0000000000 0.0000000000
0.1503906250 0.0000000000 0.0000000000
0.1943359375 0.0000000000 0.0000000000
0.2382812500 0.0000000000 0.0000000000
0.2841796875 0.0000000000 0.0000000000
0.3330078125 0.0000000000 0.0000000000
0.3847656250 0.0000000000 0.0000000000
0.4404296875 0.0000000000 0.0000000000
0.5000000000 0.0000000000 0.0000000000
0.5644531250 0.0000000000 0.0000000000
0.6337890625 0.0000000000 0.0000000000
0.7089843750 0.0000000000 0.0000000000
0.7910156250 0.0000000000 0.0000000000
0.8808593750 0.0000000000 0.0000000000
0.9736328125 0.0000000000 0.0000000000
0.9990234375 0.0000000000 0.0000000000
0.9990234375 0.0000000000 0.0000000000
0.9990234375 0.0000000000 0.0000000000
0.9990234375 0.0000000000 0.0000000000
0.9990234375 0.0000000000 0.0000000000
0.9990234375 0.0000000000 0.0000000000
0.9990234375 0.0000000000 0.0000000000
0.9990234375 0.0000000000 0.0000000000
0.9990234375 0.0000000000 0.0000000000
0.9990234375 0.0000000000 0.0000000000
0.9990234375 0.0000000000 0.0000000000
0.9990234375 0.0000000000 0.0000000000
0.9990234375 0.0000000000 0.0000000000
0.0000000000 0.0000000000 0.0000000000
0.0000000000 0.0000000000 0.0000000000
0.0000000000 0.0000000000 0.0000000000
0.0253906250 0.0000000000 0.0000000000
0.0615234375 0.0000000000 0.0000000000
0.1044921875 0.0000000000 0.0000000000
0.1494140625 0.0000000000 0.0000000000
0.1923828125 0.0000000000 0.0000000000
0.2373046875 0.0000000000 0.0000000000
0.2832031250 0.0000000000 0.0000000000
0.3320312500 0.0000000000 0.0000000000
0.3837890625 0.0000000000 0.0000000000
0.4394531250 0.0000000000 0.0000000000
0.4980468750 0.0000000000 0.0000000000
0.5625000000 0.0000000000 0.0000000000
0.6328125000 0.0000000000 0.0000000000
0.7080078125 0.0000000000 0.0000000000
0.7900390625 0.0000000000 0.0000000000
0.8789062500 0.0000000000 0.0000000000
0.9726562500 0.0000000000 0.0000000000
0.9990234375 0.0000000000 0.0000000000
0.9990234375 0.0000000000 0.0000000000
0.9990234375 0.0000000000 0.0000000000
0.9990234375 0.0000000000 0.0000000000
0.9990234375 0.0000000000 0.0000000000
0.9990234375 0.0000000000 0.0000000000
0.9990234375 0.0000000000 0.0000000000
0.9990234375 0.0000000000 0.0000000000
0.9990234375 0.0000000000 0.0000000000
0.9990234375 0.0000000000 0.0000000000
0.9990234375 0.0000000000 0.0000000000
0.9990234375 0.0000000000 0.0000000000
0.9990234375 0.0000000000 0.0000000000
0.0000000000 0.0283203125 0.0000000000
0.0000000000 0.0273437500 0.0000000000
0.0000000000 0.0253906250 0.0000000000
0.0244140625 0.0244140625 0.0000000000
0.0595703125 0.0224609375 0.0000000000
0.1035156250 0.0205078125 0.0000000000
0.1474609375 0.0185546875 0.0000000000
0.1914062500 0.0166015625 0.0000000000
0.2353515625 0.0146484375 0.0000000000
0.2812500000 0.0126953125 0.0000000000
0.3300781250 0.0107421875 0.0000000000
0.3818359375 0.0078125000 0.0000000000
0.4375000000 0.0058593750 0.0000000000
0.4970703125 0.0029296875 0.0000000000
0.5615234375 0.0000000000 0.0000000000
0.6308593750 0.0000000000 0.0000000000
0.7060546875 0.0000000000 0.0000000000
0.7880859375 0.0000000000 0.0000000000
0.8779296875 0.0000000000 0.0000000000
0.9707031250 0.0000000000 0.0000000000
0.9990234375 0.0000000000 0.0000000000
0.9990234375 0.0000000000 0.0000000000
0.9990234375 0.0000000000 0.0000000000
0.9990234375 0.0000000000 0.0000000000
0.9990234375 0.0000000000 0.0000000000
0.9990234375 0.0000000000 0.0000000000
0.9990234375 0.0000000000 0.0000000000
0.9990234375 0.0000000000 0.0000000000
0.9990234375 0.0000000000 0.0000000000
0.9990234375 0.0000000000 0.0000000000
0.9990234375 0.0000000000 0.0000000000
0.9990234375 0.0000000000 0.0000000000
0.9990234375 0.0000000000 0.0000000000
0.0000000000 0.0644531250 0.0000000000
0.0000000000 0.0634765625 0.0000000000
0.0000000000 0.0615234375 0.0000000000
0.0224609375 0.0595703125 0.0000000000
0.0585937500 0.0585937500 0.0000000000
0.1015625000 0.0566406250 0.0000000000
0.1455078125 0.0546875000 0.0000000000
0.1894531250 0.0527343750 0.0000000000
0.2333984375 0.0507812500 0.0000000000
0.2802734375 0.0478515625 0.0000000000
0.3291015625 0.0458984375 0.0000000000
0.3808593750 0.0439453125 0.0000000000
0.4355468750 0.0410156250 0.0000000000
0.4951171875 0.0380859375 0.0000000000
0.5595703125 0.0351562500 0.0000000000
0.6289062500 0.0322265625 0.0000000000
0.7050781250 0.0292968750 0.0000000000
0.7871093750 0.0253906250 0.0000000000
0.8759765625 0.0214843750 0.0000000000
0.9697265625 0.0166015625 0.0000000000
0.9990234375 0.0136718750 0.0000000000
0.9990234375 0.0117187500 0.0000000000
0.9990234375 0.0097656250 0.0000000000
0.9990234375 0.0078125000 0.0000000000
0.9990234375 0.0068359375 0.0000000000
0.9990234375 0.0068359375 0.0000000000
0.9990234375 0.0068359375 0.0000000000
0.9990234375 0.0068359375 0.0000000000
0.9990234375 0.0068359375 0.0000000000
0.9990234375 0.0068359375 0.0000000000
0.9990234375 0.0068359375 0.0000000000
0.9990234375 0.0068359375 0.0000000000
0.9990234375 0.0068359375 0.0000000000
0.0000000000 0.1074218750 0.0000000000
0.0000000000 0.1064453125 0.0000000000
0.0000000000 0.1044921875 0.0000000000
0.0205078125 0.1035156250 0.0000000000
0.0566406250 0.1015625000 0.0000000000
0.0996093750 0.0996093750 0.0000000000
0.1435546875 0.0976562500 0.0000000000
0.1875000000 0.0957031250 0.0000000000
0.2314453125 0.0937500000 0.0000000000
0.2783203125 0.0917968750 0.0000000000
0.3271484375 0.0898437500 0.0000000000
0.3789062500 0.0869140625 0.0000000000
0.4335937500 0.0849609375 0.0000000000
0.4931640625 0.0820312500 0.0000000000
0.5576171875 0.0791015625 0.0000000000
0.6269531250 0.0761718750 0.0000000000
0.7031250000 0.0722656250 0.0000000000
0.7851562500 0.0683593750 0.0000000000
0.8740234375 0.0644531250 0.0000000000
0.9677734375 0.0605468750 0.0000000000
0.9990234375 0.0576171875 0.0000000000
0.9990234375 0.0546875000 0.0000000000
0.9990234375 0.0527343750 0.0000000000
0.9990234375 0.0517578125 0.0000000000
0.9990234375 0.0498046875 0.0000000000
0.9990234375 0.0498046875 0.0000000000
0.9990234375 0.0498046875 0.0000000000
0.9990234375 0.0498046875 0.0000000000
0.9990234375 0.0498046875 0.0000000000
0.9990234375 0.0498046875 0.0000000000
0.9990234375 0.0498046875 0.0000000000
0.9990234375 0.0498046875 0.0000000000
0.9990234375 0.0498046875 0.0000000000
0.0000000000 0.1513671875 0.0000000000
0.0000000000 0.1503906250 0.0000000000
0.0000000000 0.1494140625 0.0000000000
0.0185546875 0.1474609375 0.0000000000
0.0546875000 0.1455078125 0.0000000000
0.0976562500 0.1435546875 0.0000000000
0.1416015625 0.1416015625 0.0000000000
0.1855468750 0.1396484375 0.0000000000
0.2294921875 0.1376953125 0.0000000000
0.2763671875 0.1357421875 0.0000000000
0.3251953125 0.1337890625 0.0000000000
0.3769531250 0.1308593750 0.0000000000
0.4316406250 0.1289062500 0.0000000000
0.4912109375 0.1259765625 0.0000000000
0.5556640625 0.1230468750 0.0000000000
0.6250000000 0.1201171875 0.0000000000
0.7011718750 0.1162109375 0.0000000000
0.7832031250 0.1123046875 0.0000000000
0.8720703125 0.1083984375 0.0000000000
0.9658203125 0.1044921875 0.0000000000
0.9990234375 0.1015625000 0.0000000000
0.9990234375 0.0986328125 0.0000000000
0.9990234375 0.0966796875 0.0000000000
0.9990234375 0.0957031250 0.0000000000
0.9990234375 0.0937500000 0.0000000000
0.9990234375 0.0937500000 0.0000000000
0.9990234375 0.0937500000 0.0000000000
0.9990234375 0.0937500000 0.0000000000
0.9990234375 0.0937500000 0.0000000000
0.9990234375 0.0937500000 0.0000000000
0.9990234375 0.0937500000 0.0000000000
0.9990234375 0.0937500000 0.0000000000
0.9990234375 0.0937500000 0.0000000000
0.0000000000 0.1953125000 0.0000000000
0.0000000000 0.1943359375 0.0000000000
0.0000000000 0.1923828125 0.0000000000
0.0166015625 0.1914062500 0.0000000000
0.0527343750 0.1894531250 0.0000000000
0.0957031250 0.1875000000 0.0000000000
0.1396484375 0.1855468750 0.0000000000
0.1835937500 0.1835937500 0.0000000000
0.2275390625 0.1816406250 0.0000000000
0.2744140625 0.1796875000 0.0000000000
0.3232421875 0.1767578125 0.0000000000
0.3750000000 0.1748046875 0.0000000000
0.4296875000 0.1718750000 0.0000000000
0.4892578125 0.1699218750 0.0000000000
0.5537109375 0.1669921875 0.0000000000
0.6230468750 0.1630859375 0.0000000000
0.6992187500 0.1601562500 0.0000000000
0.7812500000 0.1562500000 0.0000000000
0.8701171875 0.1523437500 0.0000000000
0.9638671875 0.1484375000 0.0000000000
0.9990234375 0.1445312500 0.0000000000
0.9990234375 0.1425781250 0.0000000000
0.9990234375 0.1406250000 0.0000000000
0.9990234375 0.1386718750 0.0000000000
0.9990234375 0.1376953125 0.0000000000
0.9990234375 0.1376953125 0.0000000000
0.9990234375 0.1376953125 0.0000000000
0.9990234375 0.1376953125 0.0000000000
0.9990234375 0.1376953125 0.0000000000
0.9990234375 0.1376953125 0.0000000000
0.9990234375 0.1376953125 0.0000000000
0.9990234375 0.1376953125 0.0000000000
0.9990234375 0.1376953125 0.0000000000
0.0000000000 0.2402343750 0.0000000000
0.0000000000 0.2382812500 0.0000000000
0.0000000000 0.2373046875 0.0000000000
0.0146484375 0.2353515625 0.0000000000
0.0507812500 0.2333984375 0.0000000000
0.0937500000 0.2314453125 0.0000000000
0.1376953125 0.2294921875 0.0000000000
0.1816406250 0.2275390625 0.0000000000
0.2255859375 0.2255859375 0.0000000000
0.2724609375 0.2236328125 0.0000000000
0.3203125000 0.2216796875 0.0000000000
0.3720703125 0.2187500000 0.0000000000
0.4277343750 0.2167968750 0.0000000000
0.4873046875 0.2138671875 0.0000000000
0.5517578125 0.2109375000 0.0000000000
0.6210937500 0.2080078125 0.0000000000
0.6962890625 0.2041015625 0.0000000000
0.7783203125 0.2011718750 0.0000000000
0.8681640625 0.1962890625 0.0000000000
0.9609375000 0.1923828125 0.0000000000
0.9990234375 0.1894531250 0.0000000000
0.9990234375 0.1875000000 0.0000000000
0.9990234375 0.1845703125 0.0000000000
0.9990234375 0.1835937500 0.0000000000
0.9990234375 0.1816406250 0.0000000000
0.9990234375 0.1816406250 0.0000000000
0.9990234375 0.1816406250 0.0000000000
0.9990234375 0.1816406250 0.0000000000
0.9990234375 0.1816406250 0.0000000000
0.9990234375 0.1816406250 0.0000000000
0.9990234375 0.1816406250 0.0000000000
0.9990234375 0.1816406250 0.0000000000
0.9990234375 0.1816406250 0.0000000000
0.0000000000 0.2861328125 0.0000000000
0.0000000000 0.2841796875 0.0000000000
0.0000000000 0.2832031250 0.0000000000
0.0126953125 0.2812500000 0.0000000000
0.0478515625 0.2802734375 0.0000000000
0.0917968750 0.2783203125 0.0000000000
0.1357421875 0.2763671875 0.0000000000
0.1796875000 0.2744140625 0.0000000000
0.2236328125 0.2724609375 0.0000000000
0.2695312500 0.2695312500 0.0000000000
0.3183593750 0.2675781250 0.0000000000
0.3701171875 0.2656250000 0.0000000000
0.4257812500 0.2626953125 0.0000000000
0.4853515625 0.2597656250 0.0000000000
0.5498046875 0.2568359375 0.0000000000
0.6191406250 0.2539062500 0.0000000000
0.6943359375 0.2509765625 0.0000000000
0.7763671875 0.2470703125 0.0000000000
0.8662109375 0.2431640625 0.0000000000
0.9589843750 0.2382812500 0.0000000000
0.9990234375 0.2353515625 0.0000000000
0.9990234375 0.2333984375 0.0000000000
0.9990234375 0.2314453125 0.0000000000
0.9990234375 0.2294921875 0.0000000000
0.9990234375 0.2285156250 0.0000000000
0.9990234375 0.2285156250 0.0000000000
0.9990234375 0.2285156250 0.0000000000
0.9990234375 0.2285156250 0.0000000000
0.9990234375 0.2285156250 0.0000000000
0.9990234375 0.2285156250 0.0000000000
0.9990234375 0.2285156250 0.0000000000
0.9990234375 0.2285156250 0.0000000000
0.9990234375 0.2285156250 0.0000000000
0.0000000000 0.3349609375 0.0000000000
0.0000000000 0.3330078125 0.0000000000
0.0000000000 0.3320312500 0.0000000000
0.0107421875 0.3300781250 0.0000000000
0.0458984375 0.3291015625 0.0000000000
0.0898437500 0.3271484375 0.0000000000
0.1337890625 0.3251953125 0.0000000000
0.1767578125 0.3232421875 0.0000000000
0.2216796875 0.3203125000 0.0000000000
0.2675781250 0.3183593750 0.0000000000
0.3164062500 0.3164062500 0.0000000000
0.3681640625 0.3144531250 0.0000000000
0.4238281250 0.3115234375 0.0000000000
0.4833984375 0.3085937500 0.0000000000
0.5478515625 0.3056640625 0.0000000000
0.6171875000 0.3027343750 0.0000000000
0.6923828125 0.2998046875 0.0000000000
0.7744140625 0.2958984375 0.0000000000
0.8632812500 0.2919921875 0.0000000000
0.9570312500 0.2871093750 0.0000000000
0.9990234375 0.2841796875 0.0000000000
0.9990234375 0.2822265625 0.0000000000
0.9990234375 0.2802734375 0.0000000000
0.9990234375 0.2783203125 0.0000000000
0.9990234375 0.2773437500 0.0000000000
0.9990234375 0.2773437500 0.0000000000
0.9990234375 0.2773437500 0.0000000000
0.9990234375 0.2773437500 0.0000000000
0.9990234375 0.2773437500 0.0000000000
0.9990234375 0.2773437500 0.0000000000
0.9990234375 0.2773437500 0.0000000000
0.9990234375 0.2773437500 0.0000000000
0.9990234375 0.2773437500 0.0000000000
0.0000000000 0.3867187500 0.0000000000
0.0000000000 0.3847656250 0.0000000000
0.0000000000 0.3837890625 0.0000000000
0.0078125000 0.3818359375 0.0000000000
0.0439453125 0.3808593750 0.0000000000
0.0869140625 0.3789062500 0.0000000000
0.1308593750 0.3769531250 0.0000000000
0.1748046875 0.3750000000 0.0000000000
0.2187500000 0.3720703125 0.0000000000
0.2656250000 0.3701171875 0.0000000000
0.3144531250 0.3681640625 0.0000000000
0.3662109375 0.3662109375 0.0000000000
0.4208984375 0.3632812500 0.0000000000
0.4804687500 0.3603515625 0.0000000000
0.5449218750 0.3574218750 0.0000000000
0.6142578125 0.3544921875 0.0000000000
0.6904296875 0.3515625000 0.0000000000
0.7724609375 0.3476562500 0.0000000000
0.8613281250 0.3437500000 0.0000000000
0.9550781250 0.3388671875 0.0000000000
0.9990234375 0.3359375000 0.0000000000
0.9990234375 0.3339843750 0.0000000000
0.9990234375 0.3320312500 0.0000000000
0.9990234375 0.3300781250 0.0000000000
0.9990234375 0.3291015625 0.0000000000
0.9990234375 0.3291015625 0.0000000000
0.9990234375 0.3291015625 0.0000000000
0.9990234375 0.3291015625 0.0000000000
0.9990234375 0.3291015625 0.0000000000
0.9990234375 0.3291015625 0.0000000000
0.9990234375 0.3291015625 0.0000000000
0.9990234375 0.3291015625 0.0000000000
0.9990234375 0.3291015625 0.0000000000
0.0000000000 0.4423828125 0.0000000000
0.0000000000 0.4404296875 0.0000000000
0.0000000000 0.4394531250 0.0000000000
0.0058593750 0.4375000000 0.0000000000
0.0410156250 0.4355468750 0.0000000000
0.0849609375 0.4335937500 0.0000000000
0.1289062500 0.4316406250 0.0000000000
0.1718750000 0.4296875000 0.0000000000
0.2167968750 0.4277343750 0.0000000000
0.2626953125 0.4257812500 0.0000000000
0.3115234375 0.4238281250 0.0000000000
0.3632812500 0.4208984375 0.0000000000
0.4189453125 0.4189453125 0.0000000000
0.4785156250 0.4160156250 0.0000000000
0.5429687500 0.4130859375 0.0000000000
0.6123046875 0.4101562500 0.0000000000
0.6875000000 0.4062500000 0.0000000000
0.7695312500 0.4023437500 0.0000000000
0.8583984375 0.3984375000 0.0000000000
0.9521484375 0.3945312500 0.0000000000
0.9990234375 0.3916015625 0.0000000000
0.9990234375 0.3886718750 0.0000000000
0.9990234375 0.3867187500 0.0000000000
0.9990234375 0.3857421875 0.0000000000
0.9990234375 0.3837890625 0.0000000000
0.9990234375 0.3837890625 0.0000000000
0.9990234375 0.3837890625 0.0000000000
0.9990234375 0.3837890625 0.0000000000
0.9990234375 0.3837890625 0.0000000000
0.9990234375 0.3837890625 0.0000000000
0.9990234375 0.3837890625 0.0000000000
0.9990234375 0.3837890625 0.0000000000
0.9990234375 0.3837890625 0.0000000000
0.0000000000 0.5009765625 0.0000000000
0.0000000000 0.5000000000 0.0000000000
0.0000000000 0.4980468750 0.0000000000
0.0029296875 0.4970703125 0.0000000000
0.0380859375 0.4951171875 0.0000000000
0.0820312500 0.4931640625 0.0000000000
0.1259765625 0.4912109375 0.0000000000
0.1699218750 0.4892578125 0.0000000000
0.2138671875 0.4873046875 0.0000000000
0.2597656250 0.4853515625 0.0000000000
0.3085937500 0.4833984375 0.0000000000
0.3603515625 0.4804687500 0.0000000000
0.4160156250 0.4785156250 0.0000000000
0.4755859375 0.4755859375 0.0000000000
0.5400390625 0.4726562500 0.0000000000
0.6093750000 0.4697265625 0.0000000000
0.6845703125 0.4658203125 0.0000000000
0.7666015625 0.4619140625 0.0000000000
0.8564453125 0.4580078125 0.0000000000
0.9492187500 0.4541015625 0.0000000000
0.9990234375 0.4511718750 0.0000000000
0.9990234375 0.4482421875 0.0000000000
0.9990234375 0.4462890625 0.0000000000
0.9990234375 0.4453125000 0.0000000000
0.9990234375 0.4433593750 0.0000000000
0.9990234375 0.4433593750 0.0000000000
0.9990234375 0.4433593750 0.0000000000
0.9990234375 0.4433593750 0.0000000000
0.9990234375 0.4433593750 0.0000000000
0.9990234375 0.4433593750 0.0000000000
0.9990234375 0.4433593750 0.0000000000
0.9990234375 0.4433593750 0.0000000000
0.9990234375 0.4433593750 0.0000000000
0.0000000000 0.5654296875 0.0000000000
0.0000000000 0.5644531250 0.0000000000
0.0000000000 0.5625000000 0.0000000000
0.0000000000 0.5615234375 0.0000000000
0.0351562500 0.5595703125 0.0000000000
0.0791015625 0.5576171875 0.0000000000
0.1230468750 0.5556640625 0.0000000000
0.1669921875 0.5537109375 0.0000000000
0.2109375000 0.5517578125 0.0000000000
0.2568359375 0.5498046875 0.0000000000
0.3056640625 0.5478515625 0.0000000000
0.3574218750 0.5449218750 0.0000000000
0.4130859375 0.5429687500 0.0000000000
0.4726562500 0.5400390625 0.0000000000
0.5371093750 0.5371093750 0.0000000000
0.6064453125 0.5341796875 0.0000000000
0.6816406250 0.5302734375 0.0000000000
0.7636718750 0.5263671875 0.0000000000
0.8535156250 0.5224609375 0.0000000000
0.9462890625 0.5185546875 0.0000000000
0.9990234375 0.5156250000 0.0000000000
0.9990234375 0.5126953125 0.0000000000
0.9990234375 0.5107421875 0.0000000000
0.9990234375 0.5087890625 0.0000000000
0.9990234375 0.5078125000 0.0000000000
0.9990234375 0.5078125000 0.0000000000
0.9990234375 0.5078125000 0.0000000000
0.9990234375 0.5078125000 0.0000000000
0.9990234375 0.5078125000 0.0000000000
0.9990234375 0.5078125000 0.0000000000
0.9990234375 0.5078125000 0.0000000000
0.9990234375 0.5078125000 0.0000000000
0.9990234375 0.5078125000 0.0000000000
0.0000000000 0.6357421875 0.0000000000
0.0000000000 0.6337890625 0.0000000000
0.0000000000 0.6328125000 0.0000000000
0.0000000000 0.6308593750 0.0000000000
0.0322265625 0.6289062500 0.0000000000
0.0761718750 0.6269531250 0.0000000000
0.1201171875 0.6250000000 0.0000000000
0.1630859375 0.6230468750 0.0000000000
0.2080078125 0.6210937500 0.0000000000
0.2539062500 0.6191406250 0.0000000000
0.3027343750 0.6171875000 0.0000000000
0.3544921875 0.6142578125 0.0000000000
0.4101562500 0.6123046875 0.0000000000
0.4697265625 0.6093750000 0.0000000000
0.5341796875 0.6064453125 0.0000000000
0.6035156250 0.6035156250 0.0000000000
0.6787109375 0.5996093750 0.0000000000
0.7607421875 0.5957031250 0.0000000000
0.8496093750 0.5917968750 0.0000000000
0.9433593750 0.5878906250 0.0000000000
0.9990234375 0.5849609375 0.0000000000
0.9990234375 0.5820312500 0.0000000000
0.9990234375 0.5800781250 0.0000000000
0.9990234375 0.5791015625 0.0000000000
0.9990234375 0.5771484375 0.0000000000
0.9990234375 0.5771484375 0.0000000000
0.9990234375 0.5771484375 0.0000000000
0.9990234375 0.5771484375 0.0000000000
0.9990234375 0.5771484375 0.0000000000
0.9990234375 0.5771484375 0.0000000000
0.9990234375 0.5771484375 0.0000000000
0.9990234375 0.5771484375 0.0000000000
0.9990234375 0.5771484375 0.0000000000
0.0000000000 0.7109375000 0.0000000000
0.0000000000 0.7089843750 0.0000000000
0.0000000000 0.7080078125 0.0000000000
0.0000000000 0.7060546875 0.0000000000
0.0292968750 0.7050781250 0.0000000000
0.0722656250 0.7031250000 0.0000000000
0.1162109375 0.7011718750 0.0000000000
0.1601562500 0.6992187500 0.0000000000
0.2041015625 0.6962890625 0.0000000000
0.2509765625 0.6943359375 0.0000000000
0.2998046875 0.6923828125 0.0000000000
0.3515625000 0.6904296875 0.0000000000
0.4062500000 0.6875000000 0.0000000000
0.4658203125 0.6845703125 0.0000000000
0.5302734375 0.6816406250 0.0000000000
0.5996093750 0.6787109375 0.0000000000
0.6757812500 0.6757812500 0.0000000000
0.7578125000 0.6718750000 0.0000000000
0.8466796875 0.6679687500 0.0000000000
0.9404296875 0.6630859375 0.0000000000
0.9990234375 0.6601562500 0.0000000000
0.9990234375 0.6582031250 0.0000000000
0.9990234375 0.6562500000 0.0000000000
0.9990234375 0.6542968750 0.0000000000
0.9990234375 0.6533203125 0.0000000000
0.9990234375 0.6533203125 0.0000000000
0.9990234375 0.6533203125 0.0000000000
0.9990234375 0.6533203125 0.0000000000
0.9990234375 0.6533203125 0.0000000000
0.9990234375 0.6533203125 0.0000000000
0.9990234375 0.6533203125 0.0000000000
0.9990234375 0.6533203125 0.0000000000
0.9990234375 0.6533203125 0.0000000000
0.0000000000 0.7929687500 0.0000000000
0.0000000000 0.7910156250 0.0000000000
0.0000000000 0.7900390625 0.0000000000
0.0000000000 0.7880859375 0.0000000000
0.0253906250 0.7871093750 0.0000000000
0.0683593750 0.7851562500 0.0000000000
0.1123046875 0.7832031250 0.0000000000
0.1562500000 0.7812500000 0.0000000000
0.2011718750 0.7783203125 0.0000000000
0.2470703125 0.7763671875 0.0000000000
0.2958984375 0.7744140625 0.0000000000
0.3476562500 0.7724609375 0.0000000000
0.4023437500 0.7695312500 0.0000000000
0.4619140625 0.7666015625 0.0000000000
0.5263671875 0.7636718750 0.0000000000
0.5957031250 0.7607421875 0.0000000000
0.6718750000 0.7578125000 0.0000000000
0.7539062500 0.7539062500 0.0000000000
0.8427734375 0.7500000000 0.0000000000
0.9365234375 0.7451171875 0.0000000000
0.9990234375 0.7421875000 0.0000000000
0.9990234375 0.7402343750 0.0000000000
0.9990234375 0.7382812500 0.0000000000
0.9990234375 0.7363281250 0.0000000000
0.9990234375 0.7353515625 0.0000000000
0.9990234375 0.7353515625 0.0000000000
0.9990234375 0.7353515625 0.0000000000
0.9990234375 0.7353515625 0.0000000000
0.9990234375 0.7353515625 0.0000000000
0.9990234375 0.7353515625 0.0000000000
0.9990234375 0.7353515625 0.0000000000
0.9990234375 0.7353515625 0.0000000000
0.9990234375 0.7353515625 0.0000000000
0.0000000000 0.8818359375 0.0000000000
0.0000000000 0.8808593750 0.0000000000
0.0000000000 0.8789062500 0.0000000000
0.0000000000 0.8779296875 0.0000000000
0.0214843750 0.8759765625 0.0000000000
0.0644531250 0.8740234375 0.0000000000
0.1083984375 0.8720703125 0.0000000000
0.1523437500 0.8701171875 0.0000000000
0.1962890625 0.8681640625 0.0000000000
0.2431640625 0.8662109375 0.0000000000
0.2919921875 0.8632812500 0.0000000000
0.3437500000 0.8613281250 0.0000000000
0.3984375000 0.8583984375 0.0000000000
0.4580078125 0.8564453125 0.0000000000
